packages/components/src/components/icon/wallet/ic-wallet-skrill-dark.svg

<svg width="40" height="25" viewBox="0 0 40 25" fill="none" xmlns="http://www.w3.org/2000/svg">
<path fill-rule="evenodd" clip-rule="evenodd" d="M25.8182 10.23C26.4069 10.23 26.8842 9.75879 26.8842 9.17751C26.8842 8.59622 26.4069 8.125 25.8182 8.125C25.2295 8.125 24.7522 8.59622 24.7522 9.17751C24.7522 9.75879 25.2295 10.23 25.8182 10.23ZM17.6669 10.7953C17.3723 11.5503 16.9569 12.2536 16.4364 12.8785V8.60597L14.2223 9.04009V16.7856H16.4364V14.3901C16.8763 15.1353 17.1964 15.9434 17.3854 16.7856H20.0519C19.7893 15.7018 18.6348 13.703 18.6348 13.703C19.3204 12.8292 19.8489 11.8457 20.1974 10.7953H17.6669ZM23.5218 10.7141C21.5259 10.7797 20.5137 11.6511 20.5137 13.4188V16.7856H22.6867V14.0403C22.6867 12.9878 22.8259 12.538 24.0912 12.4787V10.7297C23.9017 10.7019 23.71 10.6915 23.5186 10.6985L23.5218 10.7141ZM10.474 11.6511C10.1988 11.6354 9.56932 11.5948 9.56932 11.0264C9.56932 10.3487 10.4771 10.3487 10.8187 10.3487C11.4753 10.3777 12.1252 10.4921 12.7514 10.6891C12.7514 10.6891 13.0677 10.7953 13.3239 10.9046H13.3461V9.06507H13.3144C12.4079 8.7451 11.4489 8.5947 10.4866 8.62158C8.05419 8.60597 7.1875 10.002 7.1875 11.2044C7.1875 11.8947 7.488 13.5218 10.2747 13.703C10.5119 13.703 11.1382 13.753 11.1382 14.3276C11.1382 14.8086 10.6258 15.0897 9.76227 15.0897C8.93248 15.0833 8.11104 14.9255 7.33933 14.6243V16.5607C8.28129 16.7861 9.24869 16.8911 10.2178 16.873C12.5964 16.873 13.6624 15.5488 13.6624 14.237C13.6624 12.7473 12.4699 11.7822 10.4708 11.6479L10.474 11.6511ZM24.7364 16.7856H26.8968V10.8016H24.7364V16.7856ZM30.9614 8.97763V16.7856H33.125V8.60597L30.9646 8.987L30.9614 8.97763ZM27.7983 8.97763L29.9619 8.60597V16.7856H27.811V8.97763H27.7983Z" fill="#6C2556"/>
</svg>

<svg width="40" height="25" fill="none" xmlns="http://www.w3.org/2000/svg"><path fill-rule="evenodd" clip-rule="evenodd" d="M25.818 10.23a1.06 1.06 0 001.066-1.052 1.06 1.06 0 00-1.066-1.053 1.06 1.06 0 00-1.066 1.053 1.06 1.06 0 001.066 1.052zm-8.151.565a7.535 7.535 0 01-1.23 2.084V8.606l-2.215.434v7.746h2.214V14.39c.44.745.76 1.553.95 2.396h2.666c-.263-1.084-1.417-3.083-1.417-3.083a9.616 9.616 0 001.562-2.908h-2.53zm5.855-.08c-1.996.065-3.008.936-3.008 2.704v3.367h2.173V14.04c0-1.052.139-1.502 1.404-1.561v-1.75a3.152 3.152 0 00-.572-.03l.003.015zm-13.048.936c-.275-.016-.905-.056-.905-.625 0-.677.908-.677 1.25-.677a7.551 7.551 0 011.932.34s.317.106.573.216h.022v-1.84h-.032a7.84 7.84 0 00-2.827-.443c-2.433-.016-3.3 1.38-3.3 2.582 0 .69.301 2.318 3.088 2.499.237 0 .863.05.863.625 0 .48-.512.762-1.376.762a6.81 6.81 0 01-2.423-.466v1.937c.942.225 1.91.33 2.879.312 2.378 0 3.444-1.324 3.444-2.636 0-1.49-1.192-2.455-3.191-2.59l.003.004zm14.262 5.135h2.16v-5.984h-2.16v5.984zm6.225-7.808v7.808h2.164v-8.18l-2.16.381-.004-.01zm-3.163 0l2.164-.372v8.18H27.81V8.978h-.013z" fill="#6C2556"/></svg>
